X:1
T:Title
%%score 1 { ( 2 4 ) | 3 } ( 5 6 )
L:1/8
M:6/4
K:G
V:1 treble nm="Flute, Soprano"
V:2 treble nm="Grand Piano, Staff-1"
V:4 treble 
V:3 treble 
V:5 bass nm="Choir Pad, Somebody�s Here"
V:6 bass 
V:1
 D3 E G2 B3 _B =B2 | d4 e2 B4 B2 | E3 F G2 A4 D2 | B12 | D3 E G2 B3 _B =B2 | d4 e2 B4 B2 | %6
w: By~Robert~Harkness * * * * *||||||
 E2 F2 G2 A4 D2 | G12 | D2 G2 B2 d4 B2 | e12 | d2 B2 G2 c4 B2 | A12 | D2 [DG]2 [Gc]2 [GB]6 | %13
w: |||||||
 [DG]2 [GB]2 [Ge]2 [Gd]4 [GB]2 | [GB]2 [GA]2 [EG]2 [GB]4 [DA]2 | [DG]12 |] %16
w: |||
V:2
 B6 B6 | d4 e2 .B6 | A6 A6 | d4 d2 d6 | B6 B6 | d4 e2 .B6 | A6 A6 | B12 | d2 g2 b2 d'4 b2 | e'12 | %10
 d'2 b2 g2 b4 b2 | a12 | z12 | z12 | z12 | z12 |] %16
V:3
 [DG]6 [DG]6 | [GB]4 [GB]2 .[DG]6 | [^CG]6 [=CF]6 | [B,D]4 [CE]2 [CE]6 | [DG]6 [DG]6 | %5
 [GB]4 [GB]2 .[DG]6 | [^CG]6 [=CF]6 | B,4 C2 .B,6 | D2 G2 B2 c4 B2 | e12 | d2 B2 G2 c4 B2 | %11
 [Adf]4 [A^c]2 [Ad]6 | z12 | z12 | z12 | z12 |] %16
V:4
 x12 | x12 | x12 | x12 | x12 | x12 | x12 | x12 | x12 | x12 | x12 | z4 g2 f6 | x12 | x12 | x12 | %15
 x12 |] %16
V:5
 D,3 E, G,2 B,3 _B, =B,2 | D4 E2 B,4 B,2 | [A,,E,]3 F, G,2 D,4 F,2 | [G,,D,]4 [G,,E,]2 [G,,D,]6 | %4
 D,3 E, G,2 B,3 _B, =B,2 | C4 D2 B,4 B,2 | [A,,E,]2 F,2 G,2 D,4 D,2 | D,4 E,2 .D,6 | %8
 [G,,G,]4 [D,G,B,]2 [G,B,D]4 [D,G,B,]2 | [E,,E,]4 [E,G,B,]2 [G,B,E]4 [E,G,B,]2 | %10
 [G,,G,]4 [D,G,B,]2 [G,CE]4 [G,B,D]2 | [D,D]4 [E,E]2 [D,D]6 | [G,B,]2 [G,B,]2 [G,E]2 [G,D]6 | %13
 [G,B,]2 [G,D]2 [G,C]2 [G,B,]4 [G,D]2 | [E,^C]2 [E,C]2 [A,C]2 [D,D]4 [D,=C]2 | [G,B,]12 |] %16
V:6
 x12 | x12 | x12 | x12 | x12 | x12 | x12 | G,,12 | x12 | x12 | x12 | x12 | x12 | x12 | x12 | x12 |] %16

